X:1
T:Non è di gentil core
T:Bartolomeo Mutiis Conte di Cesana
T:Source  : Musiche a uno, doi e tre voci---Venetia---Herede di Angelo Gardano---1613. Editor : André Vierendeels (04/11/16).
T:Notes : Original clefs : Editorial accidentals above the staff "Tenore overo Canto" Figures in BC are notated in original print m 6 in BC : whole note notated as half note in original print m 32 in T : last "C" notated as "C sharp" in original print Text by Francesco degli Atti
T:Non è di gentil core
T:©
T:©
T:©
T:©
C:Bartolomeo Mutiis
C:Conte di Cesana
Z:©
%%score 1 2
L:1/8
Q:1/4=120
M:4/4
K:F
V:1 treble-8 nm="Tenor" snm="T"
V:2 bass nm="MusicXML Part"
V:1
 z cAc B2 A2 | G3 F F4 | F4 c2 A2 | d>c B>A G>A B>A |[M:2/4] _c>B A>G | %5
w: Non è, non è di|gen- til co-|re, che non|ar- * * * * * * *||
[M:4/4] ^F2- G F/E/ F/G/A/B/ c/d/A | G4 G2 E2 | A/B/A/G/ F/G/F/E/ D/E/D/E/ F/E/F/D/ | %8
w: de _ d'A- * * * * * * * mo-|re, che non|ar- * * * * * * * * * * * * * * *|
 E F/G/ A/B/c/d/ G4 | F8 :: A6 B2 | G>F F>E E4- | E>c B>A A4 | F6 ED | E4 E C/D/ E/F/G/A/ | B6 cd | %16
w: de l'A- * * * * * mo|re.|Ma _|voi che del mio cor,|_ che _ mio cor|l'a- ni- ma|se- te, l'a- * * * * *|* ni- ma|
 ^F8 | F4 z2 EE | E2 FG A4 | FG/F/ G/F/G/A/ B>c A>B | GA/G/ A/G/A/B/ c>d B>c | %21
w: se-|te e nel|fo- co d'A- mor|lie- * * * * * * * * * *||
 AB/A/ B/A/B/c/ d>_e c>d | Bc/B/ c/B/c/d/ _e4- | e2 dc d4 | c4 z cAc | B2 A2 G4 | F4 z dBd | %27
w: ||* ta vi- ve-|te, se- te di|gen- til co-|re, se- te di|
 c2 B2 A4 | G2 GE F/E/D/E/ F/G/A/F/ | G/F/E/F/ G/A/B/G/ A/G/F/G/ A/B/c/A/ | %30
w: gen- til co-|re, per ch'ar- de- * * * * * * *|te _ _ _ _ _ _ _ d'A- * * * * * * *|
 =B/G/A/B/ c/B/c/A/ B c2 B | c8 | cA B/A/B/c/ d4- | d2 GG G4 | F8 |] %35
w: mo- * * * * * * * * * *|re|per ch'ar- de- * * * *|* te d'A- mo-|re.|
V:2
"^BC" F,,4 B,,4 | C,4 F,,4 | F,,4 F,4 | D,4 _E,4 |[M:2/4] C,4 |[M:4/4] D,8 | G,,4 C,4 | F,,4 B,,4 | %8
 C,8 | F,,8 :: D,4 C,4 | =B,,4 C,4 | E,4 F,4 | D,8 | C,4 C,4 | G,,4 _E,4 | D,8 | D,4 C,4 | %18
 C,4 F,4 | D,4 B,,4 | _E,4 C,4 | F,4 D,4 | _E,4 C,4 |"^-natural" G,,8 | C,4 F,,4 | B,,4 C,4 | %26
 F,,4 G,,4 | C,4 D,4 | G,,2 D,2 F,,4 | C,4 F,,4 | G,,8 | C,8 | F,4 D,4 | =B,,4 C,4 | F,,8 |] %35

